!!!ONB: MCCC : ILB0166_03 : Extracted Monophonic Melody
!!!COM: Beethoven, Ludwig van
!!!OPR: Piano Sonata No.5
!!!OMV: 3
!!!SCT: Op.10 No.1
!!!ODT: 1795///
**kern
*thru
*staff1
*Ipiano
*>A
*clefG2
*k[b-e-a-]
*c:
*met(c)
*M4/4
*MM180
8c
8B
8c
8f
8f
=1
4e-
8r
8c
8B
8c
8a-
8a-
=2
4g
8r
8c
8B
8c
8cc
8cc
=3
4cc
8ee-
8dd
8ff
8ee-
8dd
8cc
=4
4b
8r
8G
8F#
8G
8c
8c
=5
4B
8r
8G
8F#
8G
8e-
8e-
=6
4d
8r
8G
8B
8d
8f
8a-
=7
8b
8dd
8ff
8aa-
8gg
8ff
8ee-
8dd
=8
4cc
8r
8cc
8b
8cc
8ccc
8ccc
=9
4ccc
8r
8fff
8eee-
8ddd
8ccc
8bb
=10
8ddd
8ccc
8r
8cc
8b
8cc
8ccc
8ccc
=11
4.ccc
8fff
8eee-
8ddd
8ccc
8bb
=12
16ccc
16ddd
16ccc
16bb
16ccc
16eee-
16ddd
16ccc
16bb
16ccc
16bb
16aa-
16gg
16ff
16ee-
16dd
=13
16cc
16dd
16cc
16b
16cc
16ee-
16dd
16cc
16b
16cc
16b
16a-
16g
16f
16e-
16d
=14
16c
16d
16c
16B
16c
16e-
16d
16c
16B
16g
16d
16B
16G
16g
16e-
16c
=15
16G
16g
16d
16B
16G
16g
16e-
16c
16G
16g
16d
16B
16G
16g
16e-
16c
=16
2g
8r
8B-
8c
8d
=17
8e-
8f
4g
4f
4e-
=18
2a-
8r
8B-
8c
8d
=19
8e-
8f
4g
4f
4e-
=20
2B-
8r
8B-
8c
8d
=21
8e-
8f
4g
4f
4e-
=22
[2cc
8cc]
8cc
8b-
8a-
=23
8g
8f
8e-
8d
4c
4B-
=24
2B-
8r
8b-
8a-
8g
=25
8g
8f
8e-
8d
4c
4B-
=26
2B-
8r
8bb-
8aa-
8gg
=27
8gg
8ff
8ee-
8dd
8cc
8b-
8cc
8dd
=28
16e-
16ee-
16e-
16ee-
16e-
16ee-
16e-
16ee-
16e-
16ee-
16e-
16ee-
16e-
16ee-
16e-
16ee-
=29
16e-
16ee-
16e-
16ee-
16e-
16ee-
16e-
16ee-
16e-
16ee-
16e-
16ee-
16e-
16ee-
16e-
16ee-
=30
4ee-
8r
8ee-
8dd
8ee-
8ccc
8ccc
=31
4ccc[
16ccc]
16bb-
16aa-
16gg
16ff
16ee-
16dd
16cc
16b
16b-
16a
16a-
=32
12g
12a-
12b-
12a-
12g
12f
12e-
12d
12c
12B-
12A-
12G
=33
16r
16F
16A-
16c
4f
16r
16F
16A-
16B-
4d
=34
16dd
16ddd
16dd
16ddd
16dd
16ddd
16dd
16ddd
16dd
16ddd
16dd
16ddd
16dd
16ddd
16dd
16ddd
=35
16ee-
16eee-
16ee-
16eee-
16ee-
16eee-
16ee-
16eee-
16ee-
16eee-
16ee-
16eee-
16ee
16eee
16ee
16eee
=36
16r
16ff
16aa-
16ccc
4fff
16r
16dd
16ff
16aa-
4ddd
=37
4eee-
8bb-
8bb-
4bb-
8bb-
8bb-
=38
4bb-
4d
4r
4d
=39
4e-
4f
4g
4f
=40
4e-
16bb-
16ccc
16bb-
16aa
4bb-
16bb-
16ccc
16bb-
16aa
=41
4bb-
4d
4r
[4e-
=42
4e-]
4f
4g
4f
=43
4e-
8a-
8g
4r
8dd
8ee-
=44
4r
8aa-
8gg
4r
8ddd
8eee-
=45
4r
4e-
2r
=46
4r
8r
*>A
*M4/4
8c
8B
8c
8f
8f
=47
4e-
8r
8c
8B
8c
8a-
8a-
=48
4g
8r
8c
8B
8c
8cc
8cc
=49
4cc
8ee-
8dd
8ff
8ee-
8dd
8cc
=50
4b
8r
8G
8F#
8G
8c
8c
=51
4B
8r
8G
8F#
8G
8e-
8e-
=52
4d
8r
8G
8B
8d
8f
8a-
=53
8b
8dd
8ff
8aa-
8gg
8ff
8ee-
8dd
=54
4cc
8r
8cc
8b
8cc
8ccc
8ccc
=55
4ccc
8r
8fff
8eee-
8ddd
8ccc
8bb
=56
8ddd
8ccc
8r
8cc
8b
8cc
8ccc
8ccc
=57
4.ccc
8fff
8eee-
8ddd
8ccc
8bb
=58
16ccc
16ddd
16ccc
16bb
16ccc
16eee-
16ddd
16ccc
16bb
16ccc
16bb
16aa-
16gg
16ff
16ee-
16dd
=59
16cc
16dd
16cc
16b
16cc
16ee-
16dd
16cc
16b
16cc
16b
16a-
16g
16f
16e-
16d
=60
16c
16d
16c
16B
16c
16e-
16d
16c
16B
16g
16d
16B
16G
16g
16e-
16c
=61
16G
16g
16d
16B
16G
16g
16e-
16c
16G
16g
16d
16B
16G
16g
16e-
16c
=62
2g
8r
8B-
8c
8d
=63
8e-
8f
4g
4f
4e-
=64
2a-
8r
8B-
8c
8d
=65
8e-
8f
4g
4f
4e-
=66
2B-
8r
8B-
8c
8d
=67
8e-
8f
4g
4f
4e-
=68
[2cc
8cc]
8cc
8b-
8a-
=69
8g
8f
8e-
8d
4c
4B-
=70
2B-
8r
8b-
8a-
8g
=71
8g
8f
8e-
8d
4c
4B-
=72
2B-
8r
8bb-
8aa-
8gg
=73
8gg
8ff
8ee-
8dd
8cc
8b-
8cc
8dd
=74
16e-
16ee-
16e-
16ee-
16e-
16ee-
16e-
16ee-
16e-
16ee-
16e-
16ee-
16e-
16ee-
16e-
16ee-
=75
16e-
16ee-
16e-
16ee-
16e-
16ee-
16e-
16ee-
16e-
16ee-
16e-
16ee-
16e-
16ee-
16e-
16ee-
=76
4ee-
8r
8ee-
8dd
8ee-
8ccc
8ccc
=77
4ccc[
16ccc]
16bb-
16aa-
16gg
16ff
16ee-
16dd
16cc
16b
16b-
16a
16a-
=78
12g
12a-
12b-
12a-
12g
12f
12e-
12d
12c
12B-
12A-
12G
=79
16r
16F
16A-
16c
4f
16r
16F
16A-
16B-
4d
=80
16dd
16ddd
16dd
16ddd
16dd
16ddd
16dd
16ddd
16dd
16ddd
16dd
16ddd
16dd
16ddd
16dd
16ddd
=81
16ee-
16eee-
16ee-
16eee-
16ee-
16eee-
16ee-
16eee-
16ee-
16eee-
16ee-
16eee-
16ee
16eee
16ee
16eee
=82
16r
16ff
16aa-
16ccc
4fff
16r
16dd
16ff
16aa-
4ddd
=83
4eee-
8bb-
8bb-
4bb-
8bb-
8bb-
=84
4bb-
4d
4r
4d
=85
4e-
4f
4g
4f
=86
4e-
16bb-
16ccc
16bb-
16aa
4bb-
16bb-
16ccc
16bb-
16aa
=87
4bb-
4d
4r
[4e-
=88
4e-]
4f
4g
4f
=89
4e-
8a-
8g
4r
8dd
8ee-
=90
4r
8aa-
8gg
4r
8ddd
8eee-
=91
4r
4e-
2r
=92
4r
8r
*>B
8r
2r
=93
4r
8r
8e-
8d
8e-
8b-
8b-
=94
8c#
8d
8b-
8b-
2r
=95
4r
8r
8f
8e
8f
8b-
8b-
=96
8d#
8e
8b-
8b-
8e
8f
8dd-
8dd-
=97
8f#
8g
8dd-
8dd-
8cc
8b-
8a
8b-
=98
8g
8a-
8ff
8ff
8b
8cc
8aa-
8aa-
=99
8ee
8ff
8bb
8bb
8gg
8aa-
8ddd
8ddd
=100
8ccc#
8ddd
8fff
8fff
2fff
=101
8r
8a-
8a-
8a-
2B
=102
8r
8AA-
8AA-
8AA-
8BBB
8AA-
8AA-
8AA-
=103
4.BBB
8c
8B
8c
8f
8f
=104
4e-
8r
8c
8B
8c
8a-
8a-
=105
4g
8r
8c
8B
8c
8cc
8cc
=106
4cc
8ee-
8dd
8ff
8ee-
8dd
8cc
=107
4b
8r
8G
8F#
8G
8c
8c
=108
4B
8r
8G
8F#
8G
8e-
8e-
=109
4d
8r
8G
8B
8d
8f
8a-
=110
8b
8dd
8ff
8aa-
8gg
8ff
8ee-
8dd
=111
4cc
8r
8cc
8b
8cc
8ccc
8ccc
=112
4ccc
8r
8fff
8eee-
8ddd
8ccc
8bb
=113
8ddd
8ccc
8r
8cc
20b
20cc
20cc#
20dd
20ee-
16ee-
16ff
16ff#
16gg
=114
16aa-
16aa
16bb-
16bb
8ccc
8fff
8eee-
8ddd
8ccc
8bb
=115
16ccc
16ddd
16ccc
16bb
16ccc
16eee-
16ddd
16ccc
16bb
16ccc
16bb
16aa-
16gg
16ff
16ee-
16dd
=116
16cc
16dd
16cc
16b
16cc
16ee-
16dd
16cc
16b
16cc
16b
16a-
16g
16f
16e-
16d
=117
16c
16d
16c
16B
16c
16e-
16d
16c
16B
16g
16d
16B
16G
16g
16e-
16c
=118
16G
16g
16d
16B
16G
16g
16e-
16c
16G
16g
16d
16B
16G
16g
16e-
16c
=119
2g
8r
8g
8a
8b
=120
8cc
8dd
4ee
4dd
4cc
=121
2ff
2r
=122
8cc
8dd
4ee
4dd
4cc
=123
2g
8r
8g
8a
8b
=124
8cc
8dd
4ee
4dd
4cc
=125
[2aa
8aa]
8aa
8gg
8ff
=126
8ee
8dd
8cc
8b
4a
4g
=127
2g
2r
=128
8ee
8dd
8cc
8b
4a-
4g
=129
2g
2r
=130
8ee-
8dd
8cc
8b
8a-
8g
8a
8b
=131
4cc
8r
8cc
8b
8cc
8ff
8ff
=132
4ee-
8r
8cc
8b
8cc
8aa-
8aa-
=133
4gg
8r
8ccc
8bb
8ccc
8fff
8fff
=134
4fff[
16fff]
16eee-
16ddd
16ccc
16bb
16ccc
16ddd
16ccc
16bb
16aa-
16gg
16ff
=135
12ee-
12ff
12gg
12ff
12ee-
12dd
12cc
12b-
12a-
12g
12f
12e-
=136
16r
16d
16f
16a-
4dd
16r
16B
16d
16f
4b
=137
16b
16bb
16b
16bb
16b
16bb
16b
16bb
16b
16bb
16b
16bb
16b
16bb
16b
16bb
=138
16cc
16ccc
16cc
16ccc
16cc
16ccc
16cc
16ccc
16cc
16ccc
16cc
16ccc
16cc
16ccc
16cc
16ccc
=139
16r
16ff
16aa-
16ddd
4fff
16r
16dd
16ff
16bb
4ddd
=140
4ccc
8gg
8gg
4gg
8gg
8gg
=141
4gg
4B
4r
4B
=142
4c
4d
4e-
4d
=143
4c
16gg
16aa-
16gg
16ff#
4gg
16gg
16aa-
16gg
16ff#
=144
4gg
4B
4r
[4c
=145
4c]
4d
4e-
4d
=146
4c
8AA-
8GG
4r
8D
8E-
=147
4r
8ff
8ee-
4r
8bb
8ccc
=148
4r
8g-
8f
4r
8dd-
8cc
=149
4r
8ff
8gg-
4r
8ddd-
8ccc
=150
1eee-
=151
4ddd-
4ccc
4bb-
4aa-
=152
2gg-
2r
=153
8d-
8e-
4f
4e-
4d-
=154
2g-[
8g-]
8A-
8B-
8c
=155
8d-
8e-
4f
4e-
4d-
=156
2A-
8r
8A-
8B-
8c
=157
8d-
8e-
4f
4e-
4d-
=158
4.g-
8e-
2c
=159
4.f#
8e-
2c
=160
8g
8e-
8c
8G
8E-
8C
8BB
8D
=161
8C
8r
4r
8r
8c
8d
8e
=162
8f
8g
8a-
8ccc
8bb
8ccc
8fff
8fff
=163
4eee
4r
8r
8c
8d
8e
=164
8f
8g
8a-
8ccc
8bb
8ccc
8fff
8fff
=165
4eee
8r
8cc
8b
8cc
8ff
8ff
=166
4ee
8r
8c
8B
8c
8f
8f
=167
4e
8r
8CC
4CC
8r
8CC
=168
4CC
8r
==
*-
